src/symbolic/places/mail-inbox-symbolic.svg

<svg width="16" height="16" version="1.1" xmlns="http://www.w3.org/2000/svg">
 <path d="m2 1c-1 0-1 1-1 1v12s0 1 1 1h12c1 0 1-1 1-1v-12s0-1-1-1h-3-6-3zm1 2h2 6 2v7h-1-2a2 2 0 0 1-0.029297 0.33398c-0.0011913 0.007156-0.0026399 0.014356-0.0039062 0.021485a2 2 0 0 1-0.087891 0.32812 2 2 0 0 1-0.14648 0.31641 2 2 0 0 1-0.73242 0.73242 2 2 0 0 1-0.31641 0.14648 2 2 0 0 1-0.32812 0.087891c-0.0071293 0.001266-0.014329 0.002715-0.021484 0.003906a2 2 0 0 1-0.33398 0.029297 2 2 0 0 1-0.33398-0.029297 2 2 0 0 1-0.021484-0.003906 2 2 0 0 1-0.32812-0.087891 2 2 0 0 1-0.31641-0.14648 2 2 0 0 1-0.73242-0.73242 2 2 0 0 1-0.14648-0.31641 2 2 0 0 1-0.087891-0.32812 2 2 0 0 1-0.0039062-0.021485 2 2 0 0 1-0.029297-0.33398h-2-1v-7zm0 9h1.5352a4 4 0 0 0 0.83203 1h-2.3672v-1zm8.4648 0h1.5352v1h-2.3672a4 4 0 0 0 0.83203-1z" fill="#555555"/>
 <path d="m7 4v3h-2l3 3 3-3h-2v-3z" fill="#555555" stroke-width=".5"/>
</svg>

<svg width="16" height="16" xmlns="http://www.w3.org/2000/svg"><path d="M2 1C1 1 1 2 1 2v12s0 1 1 1h12c1 0 1-1 1-1V2s0-1-1-1H2zm1 2h10v7h-3a2 2 0 0 1-.03.334l-.003.021a2 2 0 0 1-.088.329 2 2 0 0 1-.147.316 2 2 0 0 1-.732.732 2 2 0 0 1-.316.147 2 2 0 0 1-.329.088l-.021.004A2 2 0 0 1 8 12a2 2 0 0 1-.334-.03 2 2 0 0 1-.021-.003 2 2 0 0 1-.329-.088A2 2 0 0 1 7 11.732 2 2 0 0 1 6.268 11a2 2 0 0 1-.147-.316 2 2 0 0 1-.088-.329 2 2 0 0 1-.004-.021A2 2 0 0 1 6 10H3V3zm0 9h1.535a4 4 0 0 0 .832 1H3v-1zm8.465 0H13v1h-2.367a4 4 0 0 0 .832-1z" fill="#555"/><path d="M7 4v3H5l3 3 3-3H9V4z" fill="#555"/></svg>
